actions/symbolic/media-playlist-shuffle-rtl-symbolic.svg

<svg viewBox="0 0 16 16" xmlns="http://www.w3.org/2000/svg"><path d="m12.530517 2.500001.969483.9694835-3.554321 3.5543201-.9761975-.9694835zm-6.249267 0-1.401855 1.4018492 8.620605 8.6286658-.969483.969484-8.628662-8.6205997-1.401855 1.4018493v-3.7812486zm-.22693 6.469483.969485.9695422-2.152466 2.1511168 1.409911 1.409857h-3.78125v-3.7812486l1.401855 1.4018496 2.1524672-2.151117z" fill="#bebebe"/></svg>

<?xml version="1.0" encoding="UTF-8" standalone="no"?>
<svg
   xmlns:dc="http://purl.org/dc/elements/1.1/"
   xmlns:cc="http://creativecommons.org/ns#"
   xmlns:rdf="http://www.w3.org/1999/02/22-rdf-syntax-ns#"
   xmlns:svg="http://www.w3.org/2000/svg"
   xmlns="http://www.w3.org/2000/svg"
   xmlns:sodipodi="http://sodipodi.sourceforge.net/DTD/sodipodi-0.dtd"
   xmlns:inkscape="http://www.inkscape.org/namespaces/inkscape"
   viewBox="0 0 16 16"
   id="svg3247"
   version="1.1"
   inkscape:version="0.91 r13725"
   sodipodi:docname="media-playlist-shuffle-rtl-symbolic.svg">
  <metadata
     id="metadata3255">
    <rdf:RDF>
      <cc:Work
         rdf:about="">
        <dc:format>image/svg+xml</dc:format>
        <dc:type
           rdf:resource="http://purl.org/dc/dcmitype/StillImage" />
        <dc:title></dc:title>
      </cc:Work>
    </rdf:RDF>
  </metadata>
  <sodipodi:namedview
     pagecolor="#ffffff"
     bordercolor="#666666"
     borderopacity="1"
     objecttolerance="10"
     gridtolerance="10"
     guidetolerance="10"
     inkscape:pageopacity="0"
     inkscape:pageshadow="2"
     inkscape:window-width="640"
     inkscape:window-height="480"
     id="namedview3253"
     showgrid="false"
     inkscape:zoom="41.1875"
     inkscape:cx="-0.10925644"
     inkscape:cy="8"
     inkscape:current-layer="svg3247" />
  <defs
     id="defs3051">
    <style
       type="text/css"
       id="current-color-scheme">
      .ColorScheme-Text {
        color:#bebebe;
      }
      </style>
  </defs>
  <path
     style="color:#bebebe;fill:currentColor;fill-opacity:1;stroke:none"
     class="ColorScheme-Text"
     d="M 12.530517,2.500001 13.5,3.4694845 9.945679,7.0238046 8.9694815,6.0543211 12.530517,2.500001 Z m -6.249267,0 L 4.879395,3.9018502 13.5,12.530516 12.530517,13.5 3.901855,4.8794003 2.5,6.2812496 l 0,-3.7812486 3.78125,0 z M 6.05432,8.969484 7.023805,9.9390262 4.871339,12.090143 6.28125,13.5 2.5,13.5 2.5,9.7187514 3.901855,11.120601 6.0543222,8.969484 Z"
     id="path3251"
     inkscape:connector-curvature="0" />
</svg>
